images/leaves3.svg

<svg width="314" height="287" viewBox="0 0 314 287" fill="none" xmlns="http://www.w3.org/2000/svg">
<path fill-rule="evenodd" clip-rule="evenodd" d="M236.62 136.652C239.331 136.628 242.11 139.325 244.063 140.911C238.98 137.512 230.931 137.635 225.103 136.816C219.432 136.019 213.801 134.822 208.327 133.102C208.207 133.066 196.067 129.09 200.178 126.808C211.55 120.429 225.632 137.216 236.62 136.652ZM157.713 84.3287C159.85 89.5698 169.313 115.235 160.116 117.068C152.797 118.525 146.518 102.907 146.124 97.6873C145.475 88.9971 145.872 80.3256 144.66 71.647C149.755 75.5529 155.174 78.0371 157.713 84.3287ZM68.3359 243.059C64.8266 247.394 61.2796 251.725 57.4619 255.792C61.4722 250.822 65.2974 245.827 69.8063 241.293L68.3349 243.059L68.3359 243.059ZM304.174 42.9015C302.249 40.4193 294.729 43.4518 292.576 43.9387C286.67 45.2712 280.279 46.4558 274.88 44.1192C270.25 42.9554 277.746 34.9249 278.919 31.8529C279.742 29.6991 281.458 24.2388 280.032 22.0429C276.975 17.3387 270.577 22.8523 267.391 25.0252C262.725 28.2088 260.795 30.27 261.602 24.4267C262.47 18.1457 269.054 7.56631 262.394 2.00231C256.72 -2.73604 247.903 6.26137 244.476 9.87606C238.012 16.6828 235.012 24.3827 233.633 33.5476C233.311 35.6842 230.837 48.3194 228.665 46.0932C224.332 40.5245 227.762 32.3487 224.34 26.3478C222.395 22.9374 219.717 21.2468 218.082 17.4096C216.467 13.6213 214.836 6.82935 209.614 6.41806C206.299 6.15829 204.109 8.90088 203.562 11.6352C201.825 18.047 203.131 23.8201 203.019 30.3133C202.935 35.0646 199.813 38.6369 200.974 43.5255C202.845 50.9767 205.287 58.7911 206.55 66.5508C206.946 68.983 208.289 80.0557 203.526 77.8908C200.844 76.672 201.122 66.3109 200.939 64.49C200.501 60.1392 200.566 55.7972 197.947 52.0284C196.446 49.8679 193.956 49.0365 192.797 47.3406C189.374 42.3259 189.605 33.8257 186.779 28.3178C184.241 23.3757 177.521 11.395 171.62 10.2229C163.541 8.61733 166.58 19.6157 167.107 24.439C167.692 29.779 168.59 34.6495 168.116 39.8596C167.701 44.4592 168.03 48.1868 169.794 52.6549C173.051 60.91 177.959 68.0298 182.077 75.5507C182.069 75.5221 182.059 75.4941 182.047 75.4668C184.358 79.8817 186.283 85.3554 186.067 90.4603C185.705 99.0178 182.743 94.6606 180.143 88.8368C176.22 80.057 173.663 70.6685 169.787 61.8899C168.406 58.7628 166.75 55.5889 163.871 53.5503C161.94 52.1829 159.55 52.5147 158.05 51.6865C152.833 48.8129 133.623 16.2521 125.557 25.9581C121.201 31.1986 132.015 42.4017 134.295 46.3218C137.937 52.5828 141.801 56.9028 141.432 64.3341C139.314 62.3671 136.403 63.3924 134.467 61.8301C132.167 59.9712 131.522 56.0286 130.445 53.4504C127.483 46.3626 123.998 39.3834 119.365 33.2683C105.226 14.61 107.605 42.8164 109.005 52.1316C109.274 53.9185 109.588 56.2007 109.866 58.2353C110.589 63.5715 109.348 64.438 108.585 69.1549C107.288 77.1805 116.748 87.7682 121.638 93.5174C123.145 95.2934 146.395 124.103 136.202 123.862C131.062 123.74 122.398 109.128 119.999 104.642C116.311 97.744 113.778 83.962 106.12 80.3839C103.714 79.2602 101.727 80.4418 99.4981 79.5551C94.2905 77.4902 90.7572 69.3374 86.9907 65.5222C79.3248 57.758 69.9059 58.837 76.3192 71.4335C78.8585 76.4177 80.1181 79.744 81.6775 85.1688C83.4573 91.3572 89.0451 94.5459 91.617 99.9673C93.7418 104.448 90.4349 102.051 90.6264 107.384C90.7873 111.812 97.6556 116.657 100.888 119.12C105.378 122.542 125.617 134.008 121.65 140.926C118.033 147.232 106.233 137.724 103.079 134.832C95.1865 127.598 92.039 117.833 87.5997 108.464C85.4361 103.897 82.9598 98.3541 79.4189 94.6572C76.3141 91.4185 72.7807 90.975 68.9335 89.301C64.4537 87.3531 44.7086 76.9656 45.6188 89.5187C46.2303 97.9527 57.9804 102.037 59.4492 110.087C54.1639 107.733 43.1009 97.0265 36.803 102.655C30.7235 108.089 42.7873 119.818 46.4619 124.252C48.717 126.971 64.1561 139.206 63.8961 143.792C63.6238 148.579 58.0833 146.865 54.8822 146.229C49.4071 145.145 0.380186 133.076 0.59816 143.068C0.764715 150.816 19.6169 148.194 22.0526 152.588C22.9482 154.202 20.9989 154.99 20.6539 156.713C19.3915 163.029 21.485 165.553 28.1179 166.245C21.8188 181.342 42.6735 173.332 49.6843 170.924C54.46 169.283 74.7798 161.853 76.1864 172.048C76.6596 175.476 70.9205 180.876 69.9424 184.229C68.0577 190.698 72.8089 194.668 79.0499 192.48C83.344 190.977 87.2445 187.175 89.9994 183.652C91.5832 181.631 94.3809 174.978 97.0223 174.517C96.7591 185.468 103.146 179.806 108.973 175.1C113.331 171.581 124.186 162.012 130.664 165.818C125.592 172.856 118.662 178.461 113.123 185.107C107.06 192.388 100.75 199.187 93.7565 206.067C80.4942 219.114 67.2012 233.334 55.5326 247.755C49.8247 254.809 43.6438 261.529 37.5255 268.227C35.3168 270.642 21.4525 281.478 26.311 285.88C32.8834 291.833 44.2918 269.319 48.9832 266.714C71.2851 241.347 95.0528 217.263 116.67 191.409C115.78 194.326 116.755 202.551 121.164 202.41C120.125 204.807 117.008 208.46 117.732 211.205C119.338 217.275 121.795 211.806 124.072 212.162C127.964 212.772 124.769 219.788 124.049 222.648C120.688 235.974 120.057 250.535 119.191 264.243C118.717 271.765 125.04 292.585 135.719 283.674C141.051 279.227 141.602 268.093 141.941 261.86C142.156 257.927 140.361 247.01 143.089 243.608C147.606 245.995 153.025 256.735 155.925 260.581C162.055 268.716 167.419 273.887 178.07 274.583C203.375 276.236 172.73 247.495 175.784 245.57C177.933 244.217 192.749 256.715 194.709 258.208C199.052 261.516 212.283 269.587 217.14 262.818C221.214 257.138 210.794 247.631 207.702 243.973C205.108 240.905 203.172 236.706 199.926 233.617C197.255 231.075 193.678 229.628 191.033 227.208C188.282 224.692 188.123 221.07 185.057 218.192C181.617 214.957 176.939 212.256 173.152 209.311C166.822 204.392 157.866 197.996 157.124 189.068C171.584 190.863 181.458 206.605 191.331 215.753C196.269 220.328 202.082 226.198 209.234 224.64C212.106 224.013 209.031 223.454 212.876 223.188C213.739 223.129 214.908 223.634 215.743 223.829C221.738 225.241 227.48 227.426 233.424 228.99C237.111 229.961 248.939 234.277 252.245 230.73C258.238 224.296 232.362 208.132 227.788 204.548C224.327 201.839 220.164 199.522 216.897 196.709C213.899 194.128 212.892 190.684 208.86 188.784C203.64 186.323 197.571 185.478 192.129 183.631C184.809 181.145 178.715 177.5 172.622 172.815C170.098 170.875 163.972 166.7 165.297 163.188C167.428 157.548 177.036 164.755 179.758 166.299C187.819 170.876 195.362 178.168 205.33 181.177C215.641 184.292 220.937 194.424 230.431 198.96C233.861 200.598 235.791 200.754 239.407 200.087C243.431 199.35 245.338 198.883 250.065 200.085C254.349 201.176 275.02 207.891 273.447 198.249C272.938 195.121 268.404 193.831 266.106 192.553C261.042 189.733 256.126 186.624 250.994 183.929C247.736 182.218 243.596 181.037 240.929 178.383C238.399 175.865 237.834 173.304 234.195 171.665C229.296 169.456 221.929 169.813 217.639 166.826C213.546 163.981 210.311 159.892 205.625 157.264C201.896 155.176 180.766 147.354 181.344 143.861C182.516 136.762 206.312 150.33 208.144 151.326C219.824 157.672 231.278 166.136 243.267 172.113C247.297 174.121 250.424 173.374 254.137 173.919C259.068 174.643 264.22 178.03 269.228 179.203C273.219 180.138 283.658 182.58 281.621 175.63C280.151 170.607 270.601 166.278 266.608 163.238C262.093 159.804 257.889 156.086 252.999 153.181C251.947 152.555 249.63 151.764 248.858 150.9C246.728 148.503 248.139 144.852 245.576 142.155C248.267 144.741 250.921 146.083 254.573 146.119C255.526 146.131 257.362 145.109 258.559 144.96C262.17 144.509 266.423 145.719 270.039 146.129C275.119 146.699 300.717 145.97 287.531 136.996C281.895 133.161 275.557 130.253 269.28 127.68C264.349 125.658 257.891 124.174 253.735 120.779C249.427 117.259 248.638 115.442 242.377 114.511C235.943 113.556 226.865 113.745 221.806 109.103C211.502 99.6445 245.82 105.994 249.469 106.915C256.841 108.777 264.811 110.237 272.348 108.571C280.752 106.715 287.713 102.73 296.552 102.327C300.493 102.149 313.407 102.554 313.181 96.2209C312.96 89.9852 298.517 89.5708 294.684 88.8025C290.725 88.0095 286.225 87.7391 282.42 86.5796C278.967 85.5251 276.331 83.2974 272.965 81.9983C263.426 78.3108 255.32 83.0147 245.808 82.5731C240.786 82.3396 238.392 80.3643 243.641 76.7776C246.473 74.8385 251.022 74.6577 254.36 73.719C259.383 72.3086 264.327 70.51 269.285 68.8809C275.975 66.6795 313.541 54.8996 304.174 42.9015Z" fill="#89B99A"/>
</svg>

<svg width="314" height="287" fill="none" xmlns="http://www.w3.org/2000/svg"><path fill-rule="evenodd" clip-rule="evenodd" d="M236.62 136.652c2.711-.024 5.49 2.673 7.443 4.259-5.083-3.399-13.132-3.276-18.96-4.095-5.671-.797-11.302-1.994-16.776-3.714-.12-.036-12.26-4.012-8.149-6.294 11.372-6.379 25.454 10.408 36.442 9.844Zm-78.907-52.323c2.137 5.24 11.6 30.906 2.403 32.739-7.319 1.457-13.598-14.161-13.992-19.38-.649-8.69-.252-17.362-1.464-26.041 5.095 3.906 10.514 6.39 13.053 12.682Zm-89.377 158.73c-3.51 4.335-7.056 8.666-10.874 12.733 4.01-4.97 7.835-9.965 12.344-14.499l-1.471 1.766ZM304.174 42.902c-1.925-2.483-9.445.55-11.598 1.037-5.906 1.332-12.297 2.517-17.696.18-4.63-1.164 2.866-9.194 4.039-12.266.823-2.154 2.539-7.614 1.113-9.81-3.057-4.704-9.455.81-12.641 2.982-4.666 3.184-6.596 5.245-5.789-.598.868-6.281 7.452-16.86.792-22.425-5.674-4.738-14.491 4.26-17.918 7.874-6.464 6.807-9.464 14.507-10.843 23.672-.322 2.136-2.796 14.771-4.968 12.545-4.333-5.569-.903-13.744-4.325-19.745-1.945-3.41-4.623-5.101-6.258-8.938-1.615-3.789-3.246-10.58-8.468-10.992-3.315-.26-5.505 2.483-6.052 5.217-1.737 6.412-.431 12.185-.543 18.678-.084 4.752-3.206 8.324-2.045 13.213 1.871 7.45 4.313 15.265 5.576 23.025.396 2.432 1.739 13.505-3.024 11.34-2.682-1.219-2.404-11.58-2.587-13.401-.438-4.35-.373-8.693-2.992-12.462-1.501-2.16-3.991-2.992-5.15-4.687-3.423-5.015-3.192-13.515-6.018-19.023-2.538-4.942-9.258-16.923-15.159-18.095-8.079-1.606-5.04 9.393-4.513 14.216.585 5.34 1.483 10.21 1.009 15.42-.415 4.6-.086 8.328 1.678 12.796 3.257 8.255 8.165 15.375 12.283 22.896a.63.63 0 0 0-.03-.084c2.311 4.415 4.236 9.888 4.02 14.993-.362 8.558-3.324 4.2-5.924-1.623-3.923-8.78-6.48-18.169-10.356-26.947-1.381-3.127-3.037-6.301-5.916-8.34-1.931-1.367-4.321-1.035-5.821-1.863-5.217-2.874-24.427-35.435-32.493-25.729-4.356 5.24 6.458 16.444 8.738 20.364 3.642 6.26 7.506 10.58 7.137 18.012-2.118-1.967-5.029-.942-6.965-2.504-2.3-1.859-2.945-5.801-4.022-8.38-2.962-7.087-6.447-14.067-11.08-20.182-14.139-18.658-11.76 9.548-10.36 18.864.269 1.787.583 4.069.861 6.103.723 5.337-.518 6.203-1.281 10.92-1.297 8.025 8.163 18.613 13.053 24.362 1.507 1.776 24.757 30.586 14.564 30.345-5.14-.122-13.804-14.734-16.203-19.22-3.688-6.898-6.221-20.68-13.879-24.258-2.406-1.124-4.393.058-6.622-.829-5.208-2.065-8.74-10.218-12.507-14.033-7.666-7.764-17.085-6.685-10.672 5.911 2.54 4.985 3.8 8.311 5.358 13.736 1.78 6.188 7.368 9.377 9.94 14.798 2.125 4.481-1.182 2.084-.99 7.417.16 4.428 7.029 9.273 10.261 11.736 4.49 3.422 24.729 14.888 20.762 21.806-3.617 6.306-15.417-3.202-18.571-6.094-7.892-7.234-11.04-16.999-15.48-26.368-2.163-4.567-4.64-10.11-8.18-13.807-3.105-3.239-6.638-3.682-10.486-5.356-4.48-1.948-24.224-12.335-23.314.218.611 8.434 12.361 12.518 13.83 20.568-5.285-2.354-16.348-13.06-22.646-7.432-6.08 5.434 5.984 17.163 9.659 21.597 2.255 2.719 17.694 14.954 17.434 19.54-.272 4.787-5.813 3.073-9.014 2.437C49.407 145.145.38 133.076.598 143.068c.167 7.748 19.019 5.126 21.455 9.52.895 1.614-1.054 2.402-1.4 4.125-1.261 6.316.832 8.84 7.465 9.532-6.3 15.097 14.555 7.087 21.566 4.679 4.776-1.641 25.096-9.071 26.502 1.124.474 3.428-5.266 8.828-6.244 12.181-1.884 6.469 2.867 10.439 9.108 8.251 4.294-1.503 8.195-5.305 10.95-8.828 1.583-2.021 4.38-8.674 7.022-9.135-.263 10.951 6.124 5.289 11.951.583 4.358-3.519 15.213-13.088 21.691-9.282-5.072 7.038-12.002 12.643-17.541 19.289-6.063 7.281-12.373 14.08-19.367 20.96-13.262 13.047-26.555 27.267-38.223 41.688-5.708 7.054-11.89 13.774-18.008 20.472-2.208 2.415-16.072 13.251-11.214 17.653 6.572 5.953 17.98-16.561 22.672-19.166 22.302-25.367 46.07-49.451 67.687-75.305-.89 2.917.085 11.142 4.494 11.001-1.039 2.397-4.156 6.05-3.432 8.795 1.606 6.07 4.063.601 6.34.957 3.892.61.697 7.626-.023 10.486-3.361 13.326-3.992 27.887-4.858 41.595-.474 7.522 5.849 28.342 16.528 19.431 5.332-4.447 5.883-15.581 6.222-21.814.215-3.933-1.58-14.85 1.148-18.252 4.517 2.387 9.936 13.127 12.836 16.973 6.13 8.135 11.494 13.306 22.145 14.002 25.305 1.653-5.34-27.088-2.286-29.013 2.149-1.353 16.965 11.145 18.925 12.638 4.343 3.308 17.574 11.379 22.431 4.61 4.074-5.68-6.346-15.187-9.438-18.845-2.594-3.068-4.53-7.267-7.776-10.356-2.671-2.542-6.248-3.989-8.893-6.409-2.751-2.516-2.91-6.138-5.976-9.016-3.44-3.235-8.118-5.936-11.905-8.881-6.33-4.919-15.286-11.315-16.028-20.243 14.46 1.795 24.334 17.537 34.207 26.685 4.938 4.575 10.751 10.445 17.903 8.887 2.872-.627-.203-1.186 3.642-1.452.863-.059 2.032.446 2.867.641 5.995 1.412 11.737 3.597 17.681 5.161 3.687.971 15.515 5.287 18.821 1.74 5.993-6.434-19.883-22.598-24.457-26.182-3.461-2.709-7.624-5.026-10.891-7.839-2.998-2.581-4.005-6.025-8.037-7.925-5.22-2.461-11.289-3.306-16.731-5.153-7.32-2.486-13.414-6.131-19.507-10.816-2.524-1.94-8.65-6.115-7.325-9.627 2.131-5.64 11.739 1.567 14.461 3.111 8.061 4.577 15.604 11.869 25.572 14.878 10.311 3.115 15.607 13.247 25.101 17.783 3.43 1.638 5.36 1.794 8.976 1.127 4.024-.737 5.931-1.204 10.658-.002 4.284 1.091 24.955 7.806 23.382-1.836-.509-3.128-5.043-4.418-7.341-5.696-5.064-2.82-9.98-5.929-15.112-8.624-3.258-1.711-7.398-2.892-10.065-5.546-2.53-2.518-3.095-5.079-6.734-6.718-4.899-2.209-12.266-1.852-16.556-4.839-4.093-2.845-7.328-6.934-12.014-9.562-3.729-2.088-24.859-9.91-24.281-13.403 1.172-7.099 24.968 6.469 26.8 7.465 11.68 6.346 23.134 14.81 35.123 20.787 4.03 2.008 7.157 1.261 10.87 1.806 4.931.724 10.083 4.111 15.091 5.284 3.991.935 14.43 3.377 12.393-3.573-1.47-5.023-11.02-9.352-15.013-12.392-4.515-3.434-8.719-7.152-13.609-10.057-1.052-.626-3.369-1.417-4.141-2.281-2.13-2.397-.719-6.048-3.282-8.745 2.691 2.586 5.345 3.928 8.997 3.964.953.012 2.789-1.01 3.986-1.159 3.611-.451 7.864.759 11.48 1.169 5.08.57 30.678-.159 17.492-9.133-5.636-3.835-11.974-6.743-18.251-9.316-4.931-2.022-11.389-3.506-15.545-6.901-4.308-3.52-5.097-5.337-11.358-6.268-6.434-.955-15.512-.766-20.571-5.408-10.304-9.459 24.014-3.109 27.663-2.188 7.372 1.862 15.342 3.322 22.879 1.656 8.404-1.856 15.365-5.841 24.204-6.244 3.941-.178 16.855.227 16.629-6.106-.221-6.236-14.664-6.65-18.497-7.419-3.959-.793-8.459-1.063-12.264-2.222-3.453-1.055-6.089-3.283-9.455-4.582-9.539-3.687-17.645 1.017-27.157.575-5.022-.233-7.416-2.209-2.167-5.795 2.832-1.94 7.381-2.12 10.719-3.059 5.023-1.41 9.967-3.209 14.925-4.838 6.69-2.201 44.256-13.981 34.889-25.98Z" fill="#89B99A"/></svg>
